X:28
T:Pollonesse 1832-28
O:Södermanland
R:Slängpolska
B:Notbok 1832 från Sörmlands museum
B:Jämför SMUS - katalog M46 bild 14 nr 41 ur [[Notböcker/Nils-Johan Nybergs notbok]]
N:[[http://www.sormlandsmusikarkiv.se/noter/1832/1832.html]]
N:Se även +
Z:Jonas Brunskog
M: 3/4
L: 1/16
K: D
|:d2dc d2A2 F2D2 | d2dc d2A2 F2D2 | d2df e2eg f2fa | g2gb a4 A4:|
|:g2gf g2b2 b2g2 | f2fe f2a2 a2f2 | e2ed e2f2 g2e2 | (dc)de d4 D4:|

